assets/flags/AS.svg

<?xml version="1.0" encoding="UTF-8"?>
<svg width="21px" height="15px" viewBox="0 0 21 15" version="1.1" xmlns="http://www.w3.org/2000/svg" xmlns:xlink="http://www.w3.org/1999/xlink">
    <!-- Generator: sketchtool 46 (44423) - http://www.bohemiancoding.com/sketch -->
    <title>AS</title>
    <desc>Created with sketchtool.</desc>
    <defs>
        <linearGradient x1="50%" y1="0%" x2="50%" y2="100%" id="linearGradient-1">
            <stop stop-color="#FFFFFF" offset="0%"></stop>
            <stop stop-color="#F0F0F0" offset="100%"></stop>
        </linearGradient>
        <linearGradient x1="50%" y1="0%" x2="50%" y2="100%" id="linearGradient-2">
            <stop stop-color="#071585" offset="0%"></stop>
            <stop stop-color="#000B64" offset="100%"></stop>
        </linearGradient>
        <linearGradient x1="50%" y1="0%" x2="50%" y2="100%" id="linearGradient-3">
            <stop stop-color="#D32636" offset="0%"></stop>
            <stop stop-color="#BA1827" offset="100%"></stop>
        </linearGradient>
        <linearGradient x1="50%" y1="0%" x2="35.4001096%" y2="89.1313033%" id="linearGradient-4">
            <stop stop-color="#AB5423" offset="0%"></stop>
            <stop stop-color="#5A3719" offset="100%"></stop>
        </linearGradient>
    </defs>
    <g id="Symbols" stroke="none" stroke-width="1" fill="none" fill-rule="evenodd">
        <g id="AS">
            <rect id="FlagBackground" fill="url(#linearGradient-1)" x="0" y="0" width="21" height="15"></rect>
            <rect id="Mask" fill="url(#linearGradient-2)" x="0" y="0" width="21" height="15"></rect>
            <polygon id="Rectangle-1134" fill="url(#linearGradient-3)" fill-rule="nonzero" points="22 15.5 0 7.5 22 -0.5"></polygon>
            <polygon id="Rectangle-1134" fill="url(#linearGradient-1)" fill-rule="nonzero" points="21 0.927699992 2.92617498 7.5 21 14.0723"></polygon>
            <path d="M16,7.038486 C15.8815511,6.92003711 15.1942139,7.19421386 15.1942139,7.19421386 L14,6 C14,6 13.9383569,5.33698587 14.5,5 C14.9247187,4.74516878 15.7204931,4.83977815 16.4990013,4.5 C17.7459982,3.95575102 19,3 19,3 L18.1979642,5.20559849 C18.1979642,5.20559849 19.1166408,5.67923724 18.9999998,6 C18.9661979,6.0929551 18.0694389,6.38457486 17.9999998,6.5 C17.8680615,6.71931452 18.5239661,6.78580715 18.3197925,7.03848593 C17.7327784,7.76495606 17,8.5 17,8.5 L16,8 C16,8 16.1501465,7.18863249 16,7.038486 Z" id="Rectangle-1475" fill="url(#linearGradient-4)"></path>
            <circle id="Oval-322" fill="#FFC322" cx="13.5" cy="7.5" r="1"></circle>
            <path d="M12.5,9 L17.5,9 C17.7761424,9 18,8.77614237 18,8.5 C18,8.22385763 17.7761424,8 17.5,8 L12.5,8 C12.2238576,8 12,8.22385763 12,8.5 C12,8.77614237 12.2238576,9 12.5,9 Z" id="Line" fill="#FFC322" fill-rule="nonzero"></path>
            <path d="M14.1969596,10.4595725 L17.6969596,8.95957252 C17.9507745,8.8507947 18.0683503,8.55685524 17.9595725,8.30304035 C17.8507947,8.04922546 17.5568552,7.93164967 17.3030404,8.04042748 L13.8030404,9.54042748 C13.5492255,9.6492053 13.4316497,9.94314476 13.5404275,10.1969596 C13.6492053,10.4507745 13.9431448,10.5683503 14.1969596,10.4595725 Z" id="Line-Copy" fill="#FFC322" fill-rule="nonzero"></path>
        </g>
    </g>
</svg>

<svg width="21" height="15" xmlns="http://www.w3.org/2000/svg"><defs><linearGradient x1="50%" y1="0%" x2="50%" y2="100%" id="a"><stop stop-color="#FFF" offset="0%"/><stop stop-color="#F0F0F0" offset="100%"/></linearGradient><linearGradient x1="50%" y1="0%" x2="50%" y2="100%" id="b"><stop stop-color="#071585" offset="0%"/><stop stop-color="#000B64" offset="100%"/></linearGradient><linearGradient x1="50%" y1="0%" x2="50%" y2="100%" id="c"><stop stop-color="#D32636" offset="0%"/><stop stop-color="#BA1827" offset="100%"/></linearGradient><linearGradient x1="50%" y1="0%" x2="35.4%" y2="89.131%" id="d"><stop stop-color="#AB5423" offset="0%"/><stop stop-color="#5A3719" offset="100%"/></linearGradient></defs><g fill="none" fill-rule="evenodd"><path fill="url(#a)" d="M0 0h21v15H0z"/><path fill="url(#b)" d="M0 0h21v15H0z"/><path fill="url(#c)" fill-rule="nonzero" d="m22 15.5-22-8 22-8z"/><path fill="url(#a)" fill-rule="nonzero" d="M21 .928 2.926 7.5 21 14.072z"/><path d="M16 7.038c-.118-.118-.806.156-.806.156L14 6s-.062-.663.5-1c.425-.255 1.22-.16 1.999-.5C17.746 3.956 19 3 19 3l-.802 2.206s.919.473.802.794c-.034.093-.93.385-1 .5-.132.22.524.286.32.538C17.733 7.765 17 8.5 17 8.5L16 8s.15-.811 0-.962Z" fill="url(#d)"/><circle fill="#FFC322" cx="13.5" cy="7.5" r="1"/><path d="M12.5 9h5a.5.5 0 1 0 0-1h-5a.5.5 0 1 0 0 1Z" fill="#FFC322" fill-rule="nonzero"/><path d="m14.197 10.46 3.5-1.5a.5.5 0 0 0-.394-.92l-3.5 1.5a.5.5 0 0 0 .394.92Z" fill="#FFC322" fill-rule="nonzero"/></g></svg>
